img/AO-Item-4.svg

<svg width="77" height="60" viewBox="0 0 77 60" fill="none" xmlns="http://www.w3.org/2000/svg">
<path fill-rule="evenodd" clip-rule="evenodd" d="M74.8769 52.45C74.8769 55.5657 72.3412 58.1014 69.2254 58.1014H17.7398C15.1616 58.1014 12.0874 55.2924 12.0874 52.45V25.7022C12.0874 22.5855 14.6231 20.0498 17.7398 20.0498H69.2254C72.3412 20.0498 74.8769 22.5855 74.8769 25.7022V52.45ZM42.1718 36.2033C40.7429 37.8403 38.6542 38.815 36.4524 38.815C32.267 38.815 28.8617 35.4087 28.8608 31.2233C28.8608 27.037 32.267 23.6316 36.4524 23.6316C38.6533 23.6316 40.7429 24.6072 42.1718 26.2433C43.5998 24.6072 45.6884 23.6316 47.8902 23.6316C52.0765 23.6316 55.4819 27.037 55.4819 31.2233C55.4819 35.4087 52.0765 38.815 47.8902 38.815C45.6893 38.815 43.5998 37.8403 42.1718 36.2033ZM19.3723 51.9233C19.6338 51.9233 19.8465 51.7106 19.8465 51.4491C19.8465 51.1875 19.6338 50.974 19.3714 50.9749H18.2963C18.2456 50.7676 18.0592 50.6138 17.8357 50.6138C17.5742 50.6138 17.3615 50.8265 17.3615 51.088V51.4491C17.3615 51.7106 17.5733 51.9233 17.8357 51.9233H19.3723ZM17.3606 47.6075V49.5061C17.3606 49.7677 17.5733 49.9794 17.8348 49.9794C18.0963 49.9794 18.309 49.7677 18.309 49.5061V47.6075C18.309 47.346 18.0963 47.1333 17.8348 47.1333C17.5733 47.1333 17.3606 47.346 17.3606 47.6075ZM18.7416 46.4582C18.48 46.4582 18.2674 46.6709 18.2674 46.9324C18.2674 47.194 18.4791 47.4066 18.7416 47.4057H20.6393C20.9008 47.4057 21.1134 47.194 21.1134 46.9324C21.1134 46.6709 20.9017 46.4582 20.6393 46.4582H18.7416ZM30.2843 48.1994V46.9324C30.2843 46.6709 30.0716 46.4582 29.8101 46.4582H29.1802C28.9187 46.4582 28.706 46.6709 28.706 46.9324C28.706 47.194 28.9178 47.4057 29.1802 47.4057H29.3359V48.1994C29.3359 48.4609 29.5485 48.6736 29.8101 48.6736C30.0716 48.6736 30.2843 48.4609 30.2843 48.1994ZM26.3305 51.9233C26.593 51.9233 26.8047 51.7106 26.8047 51.4491C26.8047 51.1875 26.593 50.974 26.3305 50.9749H24.4328C24.1704 50.9749 23.9586 51.1875 23.9586 51.4491C23.9586 51.7106 24.1704 51.9233 24.4328 51.9233H26.3305ZM30.2843 51.4491V49.7821C30.2843 49.5206 30.0725 49.3079 29.8101 49.3079C29.5476 49.3079 29.3359 49.5206 29.3359 49.7821V50.9749H27.9124C27.6509 50.9749 27.4382 51.1875 27.4382 51.4491C27.4382 51.7106 27.6499 51.9233 27.9124 51.9233H29.8101C30.0716 51.9233 30.2843 51.7106 30.2843 51.4491ZM22.851 51.9233C23.1125 51.9233 23.3252 51.7106 23.3252 51.4491C23.3252 51.1875 23.1134 50.974 22.851 50.9749H20.9524C20.6908 50.9749 20.4782 51.1875 20.4782 51.4491C20.4782 51.7106 20.6899 51.9233 20.9524 51.9233H22.851ZM22.2202 46.4582C21.9587 46.4582 21.746 46.6709 21.746 46.9324C21.746 47.194 21.9587 47.4066 22.2202 47.4057H24.1188C24.3803 47.4057 24.593 47.194 24.593 46.9324C24.593 46.6709 24.3803 46.4582 24.1188 46.4582H22.2202ZM25.6998 46.4582C25.4373 46.4582 25.2256 46.6709 25.2256 46.9324C25.2256 47.194 25.4382 47.4066 25.7007 47.4057H27.5975C27.8599 47.4057 28.0717 47.194 28.0717 46.9324C28.0717 46.6709 27.8599 46.4582 27.5975 46.4582H25.6998ZM32.4136 46.4582C32.1521 46.4582 31.9394 46.6709 31.9394 46.9324C31.9394 47.194 32.1521 47.4066 32.4136 47.4057H34.3113C34.5729 47.4057 34.7855 47.194 34.7855 46.9324C34.7855 46.6709 34.5738 46.4582 34.3113 46.4582H32.4136ZM41.7446 46.9324C41.7446 46.6709 41.532 46.4582 41.2704 46.4582H39.3718C39.1103 46.4582 38.8976 46.6709 38.8976 46.9324C38.8976 47.194 39.1103 47.4057 39.3718 47.4057H41.2704C41.532 47.4057 41.7446 47.194 41.7446 46.9324ZM31.982 49.5061V47.6075C31.982 47.346 31.7702 47.1333 31.5078 47.1333C31.2453 47.1333 31.0336 47.346 31.0336 47.6075V49.5061C31.0336 49.7677 31.2462 49.9794 31.5078 49.9794C31.7693 49.9794 31.982 49.7677 31.982 49.5061ZM38.266 46.9324C38.266 46.6709 38.0533 46.4582 37.7918 46.4582H35.8932C35.6317 46.4582 35.419 46.6709 35.419 46.9324C35.419 47.194 35.6308 47.4057 35.8932 47.4057H37.7918C38.0533 47.4057 38.266 47.194 38.266 46.9324ZM43.9563 51.4491V49.7821C43.9563 49.5206 43.7446 49.307 43.4822 49.3079C43.2197 49.3079 43.008 49.5206 43.008 49.7821V50.9749H41.5845C41.322 50.9749 41.1103 51.1875 41.1103 51.4491C41.1103 51.7106 41.322 51.9233 41.5845 51.9233H43.4831C43.7446 51.9233 43.9563 51.7106 43.9563 51.4491ZM43.9563 48.1994V46.9324C43.9563 46.6709 43.7446 46.4582 43.4831 46.4582H42.8523C42.5908 46.4582 42.3781 46.6709 42.3781 46.9324C42.3781 47.194 42.5908 47.4057 42.8523 47.4057H43.0089V48.1994C43.0089 48.4609 43.2206 48.6736 43.4831 48.6736C43.7446 48.6736 43.9563 48.4609 43.9563 48.1994ZM40.0035 51.9233C40.2659 51.9233 40.4777 51.7106 40.4777 51.4491C40.4777 51.1875 40.265 50.974 40.0035 50.9749H38.1058C37.8434 50.9749 37.6316 51.1875 37.6316 51.4491C37.6316 51.7106 37.8434 51.9233 38.1058 51.9233H40.0035ZM33.0444 51.9233C33.3059 51.9233 33.5186 51.7106 33.5186 51.4491C33.5186 51.1875 33.3059 50.974 33.0435 50.9749H31.9684C31.9177 50.7676 31.7313 50.6138 31.5078 50.6138C31.2453 50.6138 31.0336 50.8265 31.0336 51.088V51.4491C31.0336 51.7106 31.2453 51.9233 31.5078 51.9233H33.0444ZM36.5239 51.9233C36.7855 51.9233 36.9981 51.7106 36.9981 51.4491C36.9981 51.1875 36.7855 50.974 36.5239 50.9749H34.6253C34.3638 50.9749 34.1511 51.1875 34.1511 51.4491C34.1511 51.7106 34.3629 51.9233 34.6253 51.9233H36.5239ZM51.901 46.9324C51.901 46.6709 51.6892 46.4582 51.4277 46.4582H49.5291C49.2666 46.4582 49.0549 46.6709 49.0549 46.9324C49.0549 47.194 49.2666 47.4057 49.5291 47.4057H51.4277C51.6892 47.4057 51.901 47.194 51.901 46.9324ZM46.0495 46.4582C45.7871 46.4582 45.5753 46.6709 45.5753 46.9324C45.5753 47.194 45.788 47.4066 46.0495 47.4057H47.9472C48.2096 47.4057 48.4214 47.194 48.4214 46.9324C48.4214 46.6709 48.2096 46.4582 47.9472 46.4582H46.0495ZM55.3805 46.9324C55.3805 46.6709 55.1688 46.4582 54.9072 46.4582H53.0086C52.7462 46.4582 52.5344 46.6709 52.5344 46.9324C52.5344 47.194 52.7462 47.4057 53.0086 47.4057H54.9072C55.1688 47.4057 55.3805 47.194 55.3805 46.9324ZM45.6178 49.5061V47.6075C45.6178 47.346 45.4061 47.1333 45.1436 47.1333C44.8821 47.1333 44.6695 47.346 44.6695 47.6075V49.5061C44.6695 49.7677 44.8821 49.9794 45.1436 49.9794C45.4061 49.9794 45.6178 49.7677 45.6178 49.5061ZM50.1598 51.9233C50.4214 51.9233 50.634 51.7106 50.634 51.4491C50.634 51.1875 50.4214 50.974 50.1598 50.9749H48.2612C47.9997 50.9749 47.787 51.1875 47.787 51.4491C47.787 51.7106 47.9997 51.9233 48.2612 51.9233H50.1598ZM46.6803 51.9233C46.9418 51.9233 47.1545 51.7106 47.1545 51.4491C47.1545 51.1875 46.9418 50.974 46.6803 50.9749H45.6052C45.5536 50.7676 45.3672 50.6138 45.1436 50.6138C44.8821 50.6138 44.6695 50.8265 44.6695 51.088V51.4491C44.6695 51.7106 44.8821 51.9233 45.1436 51.9233H46.6803ZM53.6394 51.9233C53.9018 51.9233 54.1136 51.7106 54.1136 51.4491C54.1136 51.1875 53.9018 50.974 53.6394 50.9749H51.7417C51.4792 50.9749 51.2675 51.1875 51.2675 51.4491C51.2675 51.7106 51.4792 51.9233 51.7417 51.9233H53.6394ZM57.5931 51.4491V49.7821C57.5931 49.5206 57.3805 49.307 57.118 49.3079C56.8565 49.3079 56.6447 49.5206 56.6447 49.7821V50.9749H55.2212C54.9588 50.9749 54.747 51.1875 54.747 51.4491C54.747 51.7106 54.9588 51.9233 55.2212 51.9233H57.1189C57.3814 51.9233 57.5931 51.7106 57.5931 51.4491ZM57.5931 48.1994V46.9324C57.5931 46.6709 57.3805 46.4582 57.1189 46.4582H56.4891C56.2266 46.4582 56.0149 46.6709 56.0149 46.9324C56.0149 47.194 56.2266 47.4057 56.4891 47.4057H56.6456V48.1994C56.6456 48.4609 56.8574 48.6736 57.1189 48.6736C57.3814 48.6736 57.5931 48.4609 57.5931 48.1994ZM66.6807 46.4582C66.4183 46.4582 66.2065 46.6709 66.2065 46.9324C66.2065 47.194 66.4192 47.4066 66.6807 47.4057H68.5793C68.8408 47.4057 69.0535 47.194 69.0535 46.9324C69.0535 46.6709 68.8408 46.4582 68.5793 46.4582H66.6807ZM63.2011 46.4582C62.9387 46.4582 62.7269 46.6709 62.7269 46.9324C62.7269 47.194 62.9396 47.4066 63.202 47.4057H65.0997C65.3613 47.4057 65.573 47.194 65.573 46.9324C65.573 46.6709 65.3613 46.4582 65.0997 46.4582H63.2011ZM71.2652 48.1994V46.9324C71.2652 46.6709 71.0534 46.4582 70.791 46.4582H70.1612C69.8996 46.4582 69.687 46.6709 69.687 46.9324C69.687 47.194 69.8996 47.4057 70.1612 47.4057H70.3168V48.1994C70.3168 48.4609 70.5295 48.6736 70.791 48.6736C71.0534 48.6736 71.2652 48.4609 71.2652 48.1994ZM58.3424 47.6075V49.5061C58.3424 49.7677 58.5542 49.9803 58.8157 49.9794C59.0782 49.9794 59.2899 49.7677 59.2899 49.5061V47.6075C59.2899 47.346 59.0782 47.1333 58.8157 47.1333C58.5542 47.1333 58.3424 47.346 58.3424 47.6075ZM59.7225 46.4582C59.4601 46.4582 59.2483 46.6709 59.2483 46.9324C59.2483 47.194 59.4601 47.4066 59.7225 47.4057H61.6202C61.8826 47.4057 62.0944 47.194 62.0944 46.9324C62.0944 46.6709 61.8826 46.4582 61.6202 46.4582H59.7225ZM67.3114 51.9233C67.5739 51.9233 67.7856 51.7106 67.7856 51.4491C67.7856 51.1875 67.5739 50.974 67.3114 50.9749H65.4128C65.1513 50.9749 64.9396 51.1875 64.9396 51.4491C64.9396 51.7106 65.1513 51.9233 65.4128 51.9233H67.3114ZM60.3532 51.9233C60.6148 51.9233 60.8274 51.7106 60.8274 51.4491C60.8274 51.1875 60.6139 50.974 60.3532 50.9749H59.2782C59.2266 50.7676 59.0402 50.6138 58.8166 50.6138C58.5551 50.6138 58.3433 50.8265 58.3433 51.088V51.4491C58.3433 51.7106 58.5551 51.9233 58.8166 51.9233H60.3532ZM71.2652 51.4491V49.7821C71.2652 49.5206 71.0534 49.307 70.7901 49.3079C70.5286 49.3079 70.3159 49.5206 70.3159 49.7821V50.9749H68.8933C68.6309 50.9749 68.4191 51.1875 68.4191 51.4491C68.4191 51.7106 68.6309 51.9233 68.8933 51.9233H70.791C71.0534 51.9233 71.2652 51.7106 71.2652 51.4491ZM63.8328 51.9233C64.0943 51.9233 64.307 51.7106 64.307 51.4491C64.307 51.1875 64.0934 50.974 63.8328 50.9749H61.9342C61.6727 50.9749 61.46 51.1875 61.46 51.4491C61.46 51.7106 61.6727 51.9233 61.9342 51.9233H63.8328Z" fill="white"/>
<path d="M10.1897 25.7022V48.2971L2.35914 27.5926C1.4922 25.3221 1.88766 21.6842 5.66947 20.3177L53.8846 2.25838C56.8022 1.1652 60.0664 2.65023 61.1596 5.56871L65.8726 18.1521H17.7398C13.5761 18.1521 10.1897 21.5385 10.1897 25.7022Z" fill="white"/>
<path d="M36.4524 25.5293C40.4768 25.4796 42.1718 29.7247 42.1718 29.7247C42.1718 29.7247 43.9563 25.5592 47.8902 25.5293C51.0304 25.5058 53.5842 28.0831 53.5842 31.2233C53.5842 34.3626 51.0304 36.892 47.8902 36.9164C44.2731 36.9463 42.1718 32.721 42.1718 32.721C42.1718 32.721 40.4768 37.1046 36.4524 36.9164C33.3159 36.7707 30.7585 34.3626 30.7585 31.2233C30.7585 28.084 33.3132 25.5682 36.4524 25.5293Z" fill="white"/>
</svg>

<svg xmlns="http://www.w3.org/2000/svg" width="77" height="60" fill="none"><path fill="#fff" fill-rule="evenodd" d="M74.88 52.45c0 3.12-2.54 5.65-5.65 5.65h-51.5c-2.57 0-5.64-2.8-5.64-5.65V25.7c0-3.1 2.52-5.65 5.64-5.65h51.5c3.1 0 5.64 2.54 5.64 5.65v26.75zM42.18 36.2c-1.44 1.64-3.53 2.6-5.73 2.6-4.18.02-7.6-3.4-7.6-7.58s3.42-7.6 7.6-7.6c2.2 0 4.3 1 5.72 2.62 1.43-1.63 3.52-2.6 5.72-2.6 4.18 0 7.58 3.4 7.58 7.58 0 4.2-3.4 7.6-7.6 7.6-2.2 0-4.28-.98-5.7-2.62zm-22.8 15.72c.25 0 .47-.2.47-.47 0-.26-.22-.48-.48-.48H18.3c-.05-.2-.24-.36-.46-.36-.27 0-.48.23-.48.5v.35c0 .26.2.47.48.47h1.53zm-2.02-4.3v1.9c0 .25.2.46.47.46.27 0 .48-.2.48-.47v-1.9c0-.25-.2-.47-.47-.47-.26 0-.47.22-.47.48zm1.38-1.16c-.26 0-.47.2-.47.47 0 .26.2.48.47.48h1.9c.26 0 .47-.2.47-.47 0-.26-.2-.47-.46-.47h-1.9zm11.54 1.74v-1.27c0-.26-.2-.47-.47-.47h-.62c-.26 0-.47.2-.47.47 0 .26.22.48.48.48h.16v.8c0 .26.2.47.47.47.27 0 .48-.2.48-.47zm-3.95 3.72c.26 0 .47-.2.47-.47 0-.26-.2-.48-.47-.48h-1.9c-.26 0-.47.22-.47.48s.2.47.47.47h1.9zm3.95-.47v-1.67c0-.26-.2-.47-.47-.47-.25 0-.46.22-.46.48v1.2H27.9c-.25 0-.46.2-.46.47 0 .26.2.47.47.47h1.9c.27 0 .48-.2.48-.47zm-7.43.47c.26 0 .48-.2.48-.47 0-.26-.22-.48-.48-.48h-1.9c-.26 0-.47.22-.47.48s.2.47.47.47h1.9zm-.63-5.46c-.26 0-.47.2-.47.47 0 .26.2.48.47.48h1.9c.26 0 .47-.2.47-.47 0-.26-.22-.47-.48-.47h-1.9zm3.48 0c-.26 0-.47.2-.47.47 0 .26.2.48.47.48h1.9c.26 0 .47-.2.47-.47 0-.26-.2-.47-.47-.47h-1.9zm6.7 0c-.25 0-.46.2-.46.47 0 .26.2.48.47.48h1.9c.27 0 .5-.2.5-.47 0-.26-.23-.47-.5-.47h-1.9zm9.34.47c0-.26-.2-.47-.47-.47h-1.9c-.26 0-.47.2-.47.47 0 .26.2.48.47.48h1.9c.26 0 .47-.2.47-.47zm-9.76 2.58v-1.9c0-.25-.2-.47-.47-.47-.25 0-.47.22-.47.48v1.9c0 .27.22.48.48.48.27 0 .48-.2.48-.47zm6.3-2.57c0-.26-.23-.47-.5-.47h-1.9c-.25 0-.46.2-.46.47 0 .26.2.48.47.48h1.9c.25 0 .47-.2.47-.47zm5.68 4.52v-1.67c0-.26-.22-.47-.48-.47s-.47.22-.47.48v1.2H41.6c-.26 0-.47.2-.47.47 0 .26.22.47.48.47h1.9c.26 0 .48-.2.48-.47zm0-3.25v-1.27c0-.26-.22-.47-.48-.47h-.63c-.26 0-.47.2-.47.47 0 .26.2.48.47.48H43v.8c0 .26.22.47.48.47s.48-.2.48-.47zM40 51.92c.27 0 .48-.2.48-.47 0-.26-.2-.48-.48-.48h-1.9c-.26 0-.47.22-.47.48s.2.47.48.47H40zm-6.96 0c.27 0 .48-.2.48-.47 0-.26-.2-.48-.48-.48h-1.07c-.05-.2-.24-.36-.46-.36-.25 0-.47.23-.47.5v.35c0 .26.22.47.48.47h1.54zm3.48 0c.27 0 .48-.2.48-.47 0-.26-.2-.48-.48-.48h-1.9c-.26 0-.47.22-.47.48s.2.47.48.47h1.9zm15.38-5c0-.25-.2-.46-.47-.46h-1.9c-.26 0-.48.2-.48.47 0 .26.22.48.48.48h1.9c.26 0 .47-.2.47-.47zm-5.85-.46c-.26 0-.47.2-.47.47 0 .26.2.48.47.48h1.9c.26 0 .47-.2.47-.47 0-.26-.2-.47-.47-.47h-1.9zm9.33.47c0-.26-.2-.47-.47-.47H53c-.25 0-.47.2-.47.47 0 .26.22.48.48.48h1.9c.27 0 .48-.2.48-.47zm-9.76 2.58v-1.9c0-.25-.2-.47-.48-.47-.26 0-.47.22-.47.48v1.9c0 .27.2.48.47.48.27 0 .48-.2.48-.47zm4.54 2.42c.26 0 .47-.2.47-.47 0-.26-.2-.48-.47-.48h-1.9c-.26 0-.47.22-.47.48s.2.47.46.47h1.9zm-3.48 0c.26 0 .47-.2.47-.47 0-.26-.2-.48-.47-.48H45.6c-.05-.2-.23-.36-.46-.36-.26 0-.47.23-.47.5v.35c0 .26.2.47.47.47h1.54zm6.96 0c.26 0 .47-.2.47-.47 0-.26-.2-.48-.46-.48h-1.9c-.26 0-.47.22-.47.48s.2.47.47.47h1.9zm3.95-.47v-1.67c0-.26-.22-.47-.48-.47s-.48.22-.48.48v1.2h-1.42c-.26 0-.47.2-.47.47 0 .26.2.47.47.47h1.9c.26 0 .47-.2.47-.47zm0-3.25v-1.27c0-.26-.22-.47-.48-.47h-.63c-.27 0-.5.2-.5.47 0 .26.23.48.5.48h.15v.8c0 .26.2.47.47.47.26 0 .47-.2.47-.47zm9.08-1.74c-.26 0-.47.2-.47.47 0 .26.22.48.48.48h1.9c.26 0 .47-.2.47-.47 0-.26-.2-.47-.47-.47h-1.9zm-3.48 0c-.26 0-.47.2-.47.47 0 .26.2.48.47.48h1.9c.26 0 .47-.2.47-.47 0-.26-.2-.47-.47-.47h-1.9zm8.07 1.74v-1.27c0-.26-.22-.47-.48-.47h-.64c-.26 0-.47.2-.47.47 0 .26.2.48.46.48h.16v.8c0 .26.2.47.47.47.25 0 .47-.2.47-.47zm-12.93-.6v1.9c0 .27.2.48.48.48.26 0 .47-.2.47-.47v-1.9c0-.25-.22-.47-.48-.47-.27 0-.48.22-.48.48zm1.38-1.14c-.26 0-.47.2-.47.47 0 .26.2.48.47.48h1.9c.26 0 .47-.2.47-.47 0-.26-.22-.47-.48-.47h-1.9zm7.6 5.46c.25 0 .47-.2.47-.47 0-.26-.23-.48-.5-.48h-1.9c-.25 0-.46.22-.46.48s.2.47.47.47h1.9zm-6.97 0c.26 0 .48-.2.48-.47 0-.26-.22-.48-.48-.48h-1.07c-.05-.2-.24-.36-.46-.36-.26 0-.48.23-.48.5v.35c0 .26.22.47.48.47h1.53zm10.92-.47v-1.67c0-.26-.22-.47-.48-.47-.27 0-.48.22-.48.48v1.2H68.9c-.27 0-.48.2-.48.47 0 .26.2.47.47.47h1.9c.25 0 .47-.2.47-.47zm-7.44.47c.26 0 .48-.2.48-.47 0-.26-.2-.48-.47-.48h-1.9c-.26 0-.47.22-.47.48s.2.47.47.47h1.9z" clip-rule="evenodd"/><path fill="#fff" d="M10.2 25.7v22.6L2.35 27.6c-.87-2.28-.47-5.92 3.3-7.28L53.9 2.26c2.92-1.1 6.2.4 7.28 3.3l4.7 12.6H17.75c-4.16 0-7.55 3.38-7.55 7.54zM36.45 25.53c4.03-.05 5.72 4.2 5.72 4.2s1.8-4.17 5.72-4.2c3.13-.02 5.68 2.55 5.68 5.7 0 3.13-2.55 5.66-5.7 5.7-3.6.02-5.7-4.2-5.7-4.2s-1.7 4.37-5.73 4.2c-3.13-.16-5.7-2.57-5.7-5.7 0-3.15 2.56-5.66 5.7-5.7z"/></svg>
